X: 12
M: C|
L: 1/8
K: D
{c}ud2 "Segno" |\
defd "4"e(cdB) | AFDF A2 (Bc) | dBcA BG"4"AF |1 EFGA B2 :|2 EFGA B2z |]
|:vAdfd Adfd | Adfd a2 (gf) | efga b(e e2) | defd B2 (AB) |
defd "4"e(cdB) | AFDF A2 (Bc) | dBcA BG"4"AF | EFGA B2 {c}d2\
"Segno"[|]"_D.S."[|]:|


